src/social/email.svg

<svg xmlns="http://www.w3.org/2000/svg" viewBox="0 0 30 30">
  <path d="M0 0h30v30H0z" fill="none"/>
  <path d="M25.71 22.07V7.93a.5.5 0 0 0-.5-.49H4.79a.51.51 0 0 0-.5.49v14.14a.51.51 0 0 0 .5.49h20.42a.51.51 0 0 0 .5-.49Zm-7.91-7.42-2.8 2.8-2.8-2.8L6 8.42h18Zm-6.64.35-5.88 5.89V9.11Zm.7.69 2.79 2.8a.51.51 0 0 0 .7 0l2.79-2.8L24 21.58H6Zm7-.69 5.88-5.89v11.78Z"/>
</svg>

<svg xmlns="http://www.w3.org/2000/svg" viewBox="0 0 30 30">
  <defs>
    <style>
      .a05dd3bc-fe11-4c45-8259-03d96b2dffc3 {
        fill: none;
      }
    </style>
  </defs>
  <g id="b678697a-444b-49f4-8a42-18cfe2453e7f" data-name="Email">
    <rect class="a05dd3bc-fe11-4c45-8259-03d96b2dffc3" width="30" height="30"/>
    <path d="M25.71,22.07V7.93a.5.5,0,0,0-.5-.49H4.79a.51.51,0,0,0-.5.49V22.07a.51.51,0,0,0,.5.49H25.21A.51.51,0,0,0,25.71,22.07ZM17.8,14.65h0L15,17.45l-2.8-2.8h0L6,8.42H24ZM11.16,15,5.28,20.89V9.11Zm.7.69,2.79,2.8a.51.51,0,0,0,.7,0l2.79-2.8L24,21.58H6Zm7-.69,5.88-5.89V20.89Z"/>
  </g>
</svg>
